icons/24x24_products_outline.svg

<svg xmlns="http://www.w3.org/2000/svg" width="24" height="24" viewBox="0 0 24 24">
  <path d="M5,5 L5,13 L9,13 L9,5 L5,5 Z M11,9.89949494 L11,13 L14.1005051,13 L11,9.89949494 Z M11,6.58578644 L14.2928932,3.29289322 C14.6834175,2.90236893 15.3165825,2.90236893 15.7071068,3.29289322 L19.9497475,7.53553391 C20.3402718,7.9260582 20.3402718,8.55922318 19.9497475,8.94974747 L15.8994949,13 L19,13 C20.1045695,13 21,13.8954305 21,15 L21,19 C21,20.1045695 20.1045695,21 19,21 L5,21 C3.8954305,21 3,20.1045695 3,19 L3,15 C3,14.6357129 3.09739429,14.2941734 3.26756439,14 C3.09739429,13.7058266 3,13.3642871 3,13 L3,5 C3,3.8954305 3.8954305,3 5,3 L9,3 C10.1045695,3 11,3.8954305 11,5 L11,6.58578644 Z M5,15 L5,19 L19,19 L19,15 L5,15 Z M12.1715729,8.24264069 L15,11.0710678 L17.8284271,8.24264069 L15,5.41421356 L12.1715729,8.24264069 Z"/>
</svg>

<svg width="24" height="24" fill="none" xmlns="http://www.w3.org/2000/svg"><path d="M5 5v8h4V5H5Zm6 4.9V13h3.1L11 9.9Zm0-3.314 3.293-3.293a1 1 0 0 1 1.414 0l4.243 4.243a1 1 0 0 1 0 1.414L15.9 13H19a2 2 0 0 1 2 2v4a2 2 0 0 1-2 2H5a2 2 0 0 1-2-2v-4c0-.364.097-.706.268-1A1.99 1.99 0 0 1 3 13V5a2 2 0 0 1 2-2h4a2 2 0 0 1 2 2v1.586ZM5 15v4h14v-4H5Zm7.172-6.757L15 11.07l2.828-2.828L15 5.414l-2.828 2.829Z" fill="#000"/></svg>
